X:1
T: The Duchess of Manchester's Favourite
T: The Dutchess of Manchester's Favourite
C:R. Mackintosh
R:Jig
Q: 180
K:Bb
M:6/8
L:1/8
d3 cgc|B3 AdF|GAB cde|dcB AGF|d3 cgc|B3 AdF|Ged cBA|B3 B3|
d3 cgc|B3 AdF|GAB cde|dcB AGF|d3 cgc|B3 AdF|Ged cBA|B3 B3|
d3 fdB|c3 fcA|d=ef gab|agf =edc|a3 gc'g|f3 ec'c|dba gf=e|f3 f3|
d3 cfc|B3 AdF|GAB cde|dcB AGF|d2a c2g|B2g A2F|Ged cBA|B3 B3||
